openmetadata-ui/src/main/resources/ui/src/assets/svg/data-assets.svg

<svg width="16" height="16" viewBox="0 0 16 16" fill="none" xmlns="http://www.w3.org/2000/svg">
<path d="M15.4037 6.57214C15.3988 6.57104 15.3938 6.56995 15.3889 6.56897L13.7388 6.24487C13.6267 5.87805 13.4795 5.52283 13.2988 5.18359L14.2366 3.78711C14.2395 3.78284 14.2422 3.77869 14.2449 3.77441C14.4358 3.46887 14.3912 3.07751 14.1365 2.82275L13.1772 1.86353C12.9225 1.60876 12.5312 1.56421 12.2256 1.75513C12.2213 1.75781 12.2172 1.7605 12.2129 1.76343L10.8164 2.70117C10.4772 2.52051 10.1219 2.37329 9.75513 2.26123L9.43103 0.611084C9.43005 0.606201 9.42896 0.601196 9.42786 0.596313C9.3468 0.245239 9.0387 0 8.67834 0H7.32166C6.9613 0 6.6532 0.245239 6.57214 0.596313C6.57104 0.601196 6.56995 0.606201 6.56897 0.611084L6.24487 2.26123C5.87805 2.37329 5.52283 2.52051 5.18359 2.70117L3.78711 1.76343C3.78284 1.7605 3.77869 1.75781 3.77441 1.75513C3.46887 1.56421 3.07751 1.60876 2.82275 1.86353L1.86353 2.82275C1.60876 3.07751 1.56421 3.46887 1.75513 3.77441C1.75781 3.77869 1.7605 3.78284 1.76343 3.78711L2.70117 5.18359C2.52051 5.52283 2.37329 5.87805 2.26123 6.24487L0.611084 6.56897C0.606201 6.56995 0.601196 6.57104 0.596313 6.57214C0.245239 6.6532 0 6.9613 0 7.32166V8.67834C0 9.0387 0.245239 9.3468 0.596313 9.42786C0.601196 9.42896 0.606201 9.43005 0.611084 9.43103L2.26123 9.75513C2.37329 10.1219 2.52051 10.4772 2.70117 10.8164L1.76343 12.2129C1.7605 12.2172 1.75781 12.2213 1.75513 12.2256C1.56421 12.5311 1.60876 12.9225 1.86353 13.1772L2.82275 14.1365C3.07751 14.3914 3.46887 14.4358 3.77441 14.2449C3.77869 14.2422 3.78284 14.2395 3.78711 14.2366L5.18359 13.2988C5.52283 13.4795 5.87805 13.6267 6.24487 13.7388L6.56897 15.3889C6.56995 15.3938 6.57104 15.3988 6.57214 15.4037C6.6532 15.7548 6.9613 16 7.32166 16H8.67834C9.0387 16 9.3468 15.7548 9.42786 15.4037C9.42896 15.3988 9.43005 15.3938 9.43103 15.3889L9.75513 13.7388C10.1219 13.6267 10.4772 13.4795 10.8164 13.2988L12.2129 14.2366C12.2172 14.2395 12.2213 14.2422 12.2256 14.2449C12.5311 14.4358 12.9224 14.3912 13.1772 14.1365L14.1365 13.1772C14.3912 12.9225 14.4358 12.5311 14.2449 12.2256C14.2422 12.2213 14.2395 12.2172 14.2366 12.2129L13.2988 10.8164C13.4795 10.4772 13.6267 10.1219 13.7388 9.75513L15.3889 9.43103C15.3938 9.43005 15.3988 9.42896 15.4037 9.42786C15.7548 9.3468 16 9.0387 16 8.67834V7.32166C16 6.9613 15.7548 6.6532 15.4037 6.57214ZM15.0769 8.55151L13.2817 8.9043C13.1064 8.93872 12.9668 9.07117 12.9231 9.24438C12.8031 9.72095 12.6139 10.1774 12.3608 10.6007C12.2692 10.7542 12.2743 10.9465 12.3739 11.0948L13.3942 12.6141L12.6141 13.3942L11.0948 12.3739C10.9465 12.2743 10.7542 12.2692 10.6007 12.3608C10.1772 12.6139 9.72095 12.8031 9.24438 12.9231C9.07117 12.9668 8.9386 13.1064 8.90417 13.2817L8.55151 15.0769H7.44849L7.0957 13.2817C7.06128 13.1064 6.92883 12.9668 6.75562 12.9231C6.27905 12.8031 5.82263 12.6139 5.39929 12.3608C5.24585 12.2692 5.05347 12.2743 4.90515 12.3739L3.38586 13.3942L2.60583 12.6141L3.6261 11.0948C3.72571 10.9465 3.73083 10.7542 3.63916 10.6007C3.38611 10.1772 3.1969 9.72095 3.0769 9.24438C3.0332 9.07117 2.89355 8.9386 2.71826 8.90417L0.923096 8.55151V7.44849L2.71826 7.0957C2.89355 7.06128 3.0332 6.92883 3.0769 6.75562C3.1969 6.27905 3.38611 5.82263 3.63916 5.39929C3.73083 5.24585 3.72571 5.05347 3.6261 4.90515L2.60583 3.38586L3.38586 2.60583L4.90515 3.6261C5.05347 3.72571 5.24585 3.73083 5.39929 3.63916C5.82275 3.38611 6.27905 3.1969 6.75562 3.0769C6.92883 3.0332 7.0614 2.89355 7.09583 2.71826L7.44849 0.923096H8.55151L8.9043 2.71826C8.93872 2.89355 9.07117 3.0332 9.24438 3.0769C9.72095 3.1969 10.1774 3.38611 10.6007 3.63916C10.7542 3.73083 10.9465 3.72571 11.0948 3.6261L12.6141 2.60583L13.3942 3.38586L12.3739 4.90515C12.2743 5.05347 12.2692 5.24585 12.3608 5.39929C12.6139 5.82275 12.8031 6.27905 12.9231 6.75562C12.9668 6.92883 13.1064 7.0614 13.2817 7.09583L15.0769 7.44849V8.55151Z" fill="#37352F"/>
<path d="M7.53845 6.9231H9.23071C9.48572 6.9231 9.69226 6.71643 9.69226 6.46155C9.69226 6.20667 9.48572 6 9.23071 6H8.46155V5.23071C8.46155 4.97583 8.25488 4.76929 8 4.76929C7.74512 4.76929 7.53845 4.97583 7.53845 5.23071V6C6.85986 6 6.30774 6.55212 6.30774 7.23071C6.30774 7.90942 6.85986 8.46155 7.53845 8.46155H8.46155C8.63123 8.46155 8.76929 8.59961 8.76929 8.76929C8.76929 8.93884 8.63123 9.0769 8.46155 9.0769H6.76929C6.51428 9.0769 6.30774 9.28357 6.30774 9.53845C6.30774 9.79333 6.51428 10 6.76929 10H7.53845V10.7693C7.53845 11.0242 7.74512 11.2307 8 11.2307C8.25488 11.2307 8.46155 11.0242 8.46155 10.7693V10C9.14014 10 9.69226 9.44788 9.69226 8.76929C9.69226 8.09058 9.14014 7.53845 8.46155 7.53845H7.53845C7.36877 7.53845 7.23071 7.40039 7.23071 7.23071C7.23071 7.06116 7.36877 6.9231 7.53845 6.9231Z" fill="#37352F"/>
</svg>

<svg xmlns="http://www.w3.org/2000/svg" width="16" height="16" fill="none"><path fill="#37352F" d="M15.404 6.572a.65.65 0 0 0-.015-.003l-1.65-.324a5.965 5.965 0 0 0-.44-1.061l.938-1.397a.766.766 0 0 0-.1-.964l-.96-.96a.766.766 0 0 0-.964-.1l-1.397.938a5.965 5.965 0 0 0-1.06-.44L9.43.611A.766.766 0 0 0 8.678 0H7.322a.766.766 0 0 0-.753.611l-.324 1.65c-.367.112-.722.26-1.061.44l-1.397-.938a.766.766 0 0 0-.964.1l-.96.96a.766.766 0 0 0-.1.964l.938 1.397c-.18.339-.328.694-.44 1.06l-1.65.325A.766.766 0 0 0 0 7.322v1.356a.766.766 0 0 0 .611.753l1.65.324c.112.367.26.722.44 1.061l-.938 1.397a.766.766 0 0 0 .1.964l.96.96a.766.766 0 0 0 .964.1l1.397-.938c.339.18.694.328 1.06.44l.325 1.65a.766.766 0 0 0 .753.611h1.356a.766.766 0 0 0 .753-.611l.324-1.65c.367-.112.722-.26 1.061-.44l1.397.938a.766.766 0 0 0 .964-.1l.96-.96a.766.766 0 0 0 .1-.964l-.938-1.397c.18-.339.328-.694.44-1.06l1.65-.325A.766.766 0 0 0 16 8.678V7.322a.766.766 0 0 0-.596-.75Zm-.327 1.98-1.795.352a.462.462 0 0 0-.359.34 5.04 5.04 0 0 1-.562 1.357.462.462 0 0 0 .013.494l1.02 1.52-.78.78-1.52-1.021a.462.462 0 0 0-.493-.013c-.424.253-.88.442-1.357.562a.462.462 0 0 0-.34.359l-.352 1.795H7.448l-.352-1.795a.462.462 0 0 0-.34-.359 5.04 5.04 0 0 1-1.357-.562.462.462 0 0 0-.494.013l-1.52 1.02-.78-.78 1.021-1.52c.1-.147.105-.34.013-.493a5.044 5.044 0 0 1-.562-1.357.462.462 0 0 0-.359-.34L.923 8.552V7.448l1.795-.352a.462.462 0 0 0 .359-.34c.12-.477.31-.933.562-1.357a.462.462 0 0 0-.013-.494l-1.02-1.52.78-.78 1.52 1.021c.147.1.34.105.493.013.424-.253.88-.442 1.357-.562a.462.462 0 0 0 .34-.359L7.448.923h1.104l.352 1.795a.462.462 0 0 0 .34.359c.477.12.933.31 1.357.562a.461.461 0 0 0 .494-.013l1.52-1.02.78.78-1.021 1.52a.462.462 0 0 0-.013.493c.253.424.442.88.562 1.357a.462.462 0 0 0 .359.34l1.795.352v1.104Z"/><path fill="#37352F" d="M7.538 6.923h1.693a.462.462 0 1 0 0-.923h-.77v-.77a.461.461 0 0 0-.923 0V6c-.678 0-1.23.552-1.23 1.23 0 .68.552 1.232 1.23 1.232h.924a.308.308 0 0 1 0 .615H6.769a.462.462 0 1 0 0 .923h.77v.77a.461.461 0 0 0 .923 0V10c.678 0 1.23-.552 1.23-1.23 0-.68-.552-1.232-1.23-1.232h-.924a.308.308 0 0 1 0-.615Z"/></svg>
